X: 0
T: Vallvisa
F: https://www.youtube.com/watch?v=vk9BDhd4FcM
A: Ludvig Eriksson
O: Dalarna
M:4/4
K:D fgp=1
B8 | B3/2d/ _cc BG E3/2E/ | DF AF E4 | A_c ec B2 c/4B/4A/4Bz/4 | e3/2d/ _c/B/c/e/ dB GB | \
d3/2e/ _cB A4 | dB/d/ _c/B/A/c/ BG E3/2E/ | DF AF/4A/4F/ E4 |
